;FLAVOR:Marlin
;TIME:11928
;Filament used: 10.0186m
;Layer height: 0.2
;MINX:12.932
;MINY:75.432
;MINZ:0.2
;MAXX:208.5
;MAXY:146
;MAXZ:44
;Generated with Cura_SteamEngine 4.3.0
M140 S50
M105
M190 S50
M104 S200
M105
M109 S200
M82 ;absolute extrusion mode
M201 X500.00 Y500.00 Z100.00 E5000.00 ;Setup machine max acceleration
M203 X500.00 Y500.00 Z10.00 E50.00 ;Setup machine max feedrate
M204 P500.00 R1000.00 T500.00 ;Setup Print/Retract/Travel acceleration
M205 X8.00 Y8.00 Z0.40 E5.00 ;Setup Jerk
M220 S100 ;Reset Feedrate
M221 S100 ;Reset Flowrate

G28 ;Home

G92 E0 ;Reset Extruder
G1 Z2.0 F3000 ;Move Z Axis up
G1 X10.1 Y20 Z0.28 F5000.0 ;Move to start position
G1 X10.1 Y200.0 Z0.28 F1500.0 E15 ;Draw the first line
G1 X10.4 Y200.0 Z0.28 F5000.0 ;Move to side a little
G1 X10.4 Y20 Z0.28 F1500.0 E30 ;Draw the second line
G92 E0 ;Reset Extruder
G1 Z2.0 F3000 ;Move Z Axis up

G92 E0
G92 E0
G1 F2700 E-5
;LAYER_COUNT:220
;LAYER:0
M107
G0 F6000 X22.5 Y122.12 Z0.2
;TYPE:SKIRT
G1 F2700 E0
G1 F1200 X23.684 Y122.016 E0.03953
G1 X25.535 Y121.954 E0.10113
G1 X28.066 Y121.818 E0.18543
G1 X30.557 Y121.614 E0.26856
G1 X33.09 Y121.335 E0.35332
G1 X35.554 Y120.992 E0.43606
G1 X38.061 Y120.57 E0.52062
G1 X40.524 Y120.084 E0.60412
G1 X42.955 Y119.532 E0.68703
G1 X45.43 Y118.898 E0.77201
G1 X47.838 Y118.206 E0.85534
G1 X50.231 Y117.445 E0.93886
G1 X52.622 Y116.609 E1.02311
G1 X54.943 Y115.723 E1.10574
G1 X57.285 Y114.752 E1.19006
G1 X59.6 Y113.716 E1.27442
G1 X61.841 Y112.636 E1.35716
G1 X64.111 Y111.46 E1.44219
G1 X66.282 Y110.257 E1.52474
G1 X68.464 Y108.966 E1.60906
G1 X70.559 Y107.645 E1.69144
G1 X72.702 Y106.207 E1.77728
G1 X74.729 Y104.763 E1.86005
G1 X76.715 Y103.262 E1.94285
G1 X78.708 Y101.665 E2.02779
G1 X80.61 Y100.05 E2.11078
G1 X82.509 Y98.342 E2.19573
G1 X84.308 Y96.631 E2.27831
G1 X86.139 Y94.787 E2.36474
G1 X87.037 Y93.857 E2.40774
G1 X87.469 Y93.434 E2.42785
G1 X87.65 Y93.266 E2.43606
G1 X88.048 Y92.914 E2.45373
G1 X88.428 Y92.594 E2.47026
G1 X89.31 Y91.924 E2.5071
G1 X89.537 Y91.769 E2.51624
G1 X90.065 Y91.43 E2.53711
G1 X90.52 Y91.156 E2.55477
G1 X91.57 Y90.599 E2.59431
G1 X91.816 Y90.485 E2.60332
G1 X92.284 Y90.281 E2.6203
G1 X92.747 Y90.092 E2.63694
G1 X93.935 Y89.684 E2.67872
G1 X94.199 Y89.61 E2.68783
G1 X94.654 Y89.493 E2.70346
G1 X95.161 Y89.374 E2.72078
G1 X96.405 Y89.157 E2.76278
G1 X96.689 Y89.124 E2.77229
G1 X97.172 Y89.078 E2.78843
G1 X97.646 Y89.044 E2.80423
G1 X98.258 Y89.017 E2.82461
G1 X99.014 Y89.005 E2.84976
G1 X99.189 Y89.004 E2.85558
G1 X145.275 Y89.002 E4.3884
G1 X147.884 Y88.965 E4.47519
G1 X150.406 Y88.858 E4.55915
G1 X152.885 Y88.682 E4.64181
G1 X155.411 Y88.431 E4.72623
G1 X157.911 Y88.111 E4.81006
G1 X160.372 Y87.725 E4.89292
G1 X162.879 Y87.259 E4.97773
G1 X165.301 Y86.737 E5.06013
G1 X167.769 Y86.132 E5.14465
G1 X170.219 Y85.457 E5.22917
G1 X172.582 Y84.735 E5.31135
G1 X175.017 Y83.913 E5.39683
G1 X177.349 Y83.052 E5.47951
G1 X179.657 Y82.125 E5.56224
G1 X182.015 Y81.1 E5.64776
G1 X184.273 Y80.042 E5.73069
G1 X186.505 Y78.917 E5.81383
G1 X189.447 Y77.315 E5.92524
G1 X190.209 Y76.881 E5.95441
G1 X191.043 Y76.452 E5.9856
G1 X191.911 Y76.097 E6.01679
G1 X192.805 Y75.816 E6.04796
G1 X193.721 Y75.613 E6.07917
G1 X194.651 Y75.488 E6.11038
G1 X195.455 Y75.445 E6.13716
G1 X196.031 Y75.435 E6.15632
G1 X196.198 Y75.433 E6.16187
G1 X196.658 Y75.432 E6.17717
G1 X196.84 Y75.433 E6.18323
G1 X197.536 Y75.443 E6.20638
G1 X198.472 Y75.497 E6.23756
G1 X199.401 Y75.63 E6.26878
G1 X200.314 Y75.841 E6.29994
G1 X201.207 Y76.13 E6.33116
G1 X202.071 Y76.493 E6.36233
G1 X202.902 Y76.929 E6.39354
G1 X203.692 Y77.435 E6.42475
G1 X204.436 Y78.005 E6.45592
G1 X205.129 Y78.637 E6.48711
G1 X205.707 Y79.257 E6.51531
G1 X205.82 Y79.388 E6.52106
G1 X206.402 Y80.124 E6.55227
G1 X206.919 Y80.906 E6.58345
G1 X207.368 Y81.73 E6.61466
G1 X207.744 Y82.589 E6.64585
G1 X208.046 Y83.477 E6.67704
G1 X208.272 Y84.387 E6.70823
G1 X208.419 Y85.313 E6.73941
G1 X208.489 Y86.373 E6.77475
G1 X208.498 Y86.868 E6.79121
G1 X208.5 Y87.068 E6.79787
G1 X208.5 Y130.225 E8.23327
G1 X208.499 Y130.374 E8.23823
G1 X208.489 Y131.114 E8.26284
G1 X208.48 Y131.439 E8.27366
G1 X208.47 Y131.671 E8.28138
G1 X208.442 Y132.113 E8.29611
G1 X208.408 Y132.52 E8.3097
G1 X208.29 Y133.45 E8.34087
G1 X208.186 Y133.98 E8.35884
G1 X208.113 Y134.31 E8.37008
G1 X208.024 Y134.681 E8.38277
G1 X207.959 Y134.933 E8.39143
G1 X207.592 Y136.089 E8.43177
G1 X207.477 Y136.392 E8.44254
G1 X207.336 Y136.746 E8.45522
G1 X207.208 Y137.051 E8.46622
G1 X206.809 Y137.899 E8.49739
G1 X206.512 Y138.43 E8.51763
G1 X206.302 Y138.782 E8.53126
G1 X205.521 Y139.921 E8.57719
G1 X205.055 Y140.517 E8.60236
G1 X204.446 Y141.231 E8.63357
G1 X204.047 Y141.639 E8.65255
G1 X203.816 Y141.863 E8.66325
G1 X203.185 Y142.429 E8.69144
G1 X202.861 Y142.698 E8.70545
G1 X201.745 Y143.512 E8.75139
G1 X201.53 Y143.649 E8.75987
G1 X201.143 Y143.884 E8.77493
G1 X200.883 Y144.035 E8.78493
G1 X199.727 Y144.618 E8.82799
G1 X199.207 Y144.843 E8.84684
G1 X198.331 Y145.179 E8.87804
G1 X197.875 Y145.321 E8.89393
G1 X197.384 Y145.462 E8.91092
G1 X196.829 Y145.606 E8.92999
G1 X196.626 Y145.653 E8.93692
G1 X195.336 Y145.871 E8.98044
G1 X195.079 Y145.899 E8.98903
G1 X194.576 Y145.942 E9.00582
G1 X194.161 Y145.968 E9.01965
G1 X193.223 Y145.987 E9.05086
G1 X192.385 Y145.936 E9.07878
G1 X192.043 Y145.902 E9.09021
G1 X191.579 Y145.846 E9.10576
G1 X188.93 Y145.469 E9.19475
G1 X186.419 Y145.182 E9.27881
G1 X183.927 Y144.969 E9.362
G1 X181.396 Y144.825 E9.44632
G1 X178.891 Y144.753 E9.52967
G1 X177.533 Y144.744 E9.57484
G1 X109.499 Y144.744 E11.83766
G1 X106.891 Y144.781 E11.92441
G1 X104.369 Y144.888 E12.00836
G1 X101.875 Y145.065 E12.09152
G1 X99.412 Y145.309 E12.17384
G1 X95.78 Y145.795 E12.29572
G1 X95.369 Y145.858 E12.30955
G1 X94.437 Y145.96 E12.34073
G1 X93.948 Y145.982 E12.35702
G1 X93.279 Y145.997 E12.37927
G1 X93.032 Y146 E12.38749
G1 X24.783 Y146 E14.65746
G1 X24.626 Y145.999 E14.66268
G1 X23.925 Y145.989 E14.686
G1 X22.989 Y145.936 E14.71718
G1 X22.06 Y145.803 E14.74839
G1 X21.147 Y145.591 E14.77957
G1 X20.254 Y145.303 E14.81078
G1 X19.39 Y144.939 E14.84196
G1 X18.559 Y144.503 E14.87317
G1 X17.769 Y143.998 E14.90436
G1 X17.025 Y143.428 E14.93553
G1 X16.332 Y142.796 E14.96672
G1 X16.193 Y142.658 E14.97324
G1 X15.556 Y141.97 E15.00442
G1 X14.98 Y141.229 E15.03564
G1 X14.47 Y140.443 E15.0668
G1 X14.028 Y139.615 E15.09802
G1 X13.658 Y138.754 E15.12919
G1 X13.363 Y137.863 E15.16041
G1 X13.145 Y136.951 E15.19159
G1 X13.006 Y136.024 E15.22277
G1 X12.945 Y135.041 E15.25553
G1 X12.935 Y134.459 E15.27489
G1 X12.933 Y134.294 E15.28038
G1 X12.932 Y133.84 E15.29548
G1 X12.933 Y133.655 E15.30163
G1 X12.943 Y132.97 E15.32442
G1 X12.997 Y132.034 E15.3556
G1 X13.13 Y131.106 E15.38678
G1 X13.342 Y130.192 E15.41799
G1 X13.631 Y129.3 E15.44917
G1 X13.995 Y128.435 E15.48039
G1 X14.431 Y127.605 E15.51157
G1 X14.936 Y126.815 E15.54276
G1 X15.507 Y126.071 E15.57395
G1 X15.869 Y125.659 E15.59219
G1 X15.981 Y125.538 E15.59767
G1 X16.647 Y124.877 E15.62888
G1 X17.367 Y124.276 E15.66008
G1 X18.135 Y123.738 E15.69126
G1 X18.947 Y123.268 E15.72247
G1 X19.795 Y122.868 E15.75365
G1 X20.674 Y122.542 E15.78484
G1 X21.578 Y122.292 E15.81603
G1 X22.5 Y122.12 E15.84723
G0 F6000 X22.691 Y122.498
G1 F1200 X23.698 Y122.416 E15.88083
G1 X25.518 Y122.355 E15.9414
G1 X28.086 Y122.217 E16.02693
G1 X30.632 Y122.009 E16.1119
G1 X33.118 Y121.735 E16.19508
G1 X35.645 Y121.383 E16.27994
G1 X38.127 Y120.965 E16.36366
G1 X40.585 Y120.48 E16.44699
G1 X43.081 Y119.913 E16.53212
G1 X45.503 Y119.293 E16.61527
G1 X47.955 Y118.588 E16.70013
G1 X50.379 Y117.818 E16.78472
G1 X52.716 Y117 E16.86707
G1 X55.145 Y116.074 E16.95353
G1 X57.423 Y115.129 E17.03556
G1 X59.759 Y114.083 E17.12069
G1 X62.02 Y112.993 E17.20417
G1 X64.31 Y111.807 E17.28995
G1 X66.474 Y110.609 E17.37222
G1 X68.66 Y109.315 E17.45671
G1 X70.814 Y107.957 E17.5414
G1 X72.911 Y106.55 E17.62539
G1 X74.957 Y105.092 E17.70895
G1 X76.983 Y103.561 E17.79341
G1 X78.951 Y101.984 E17.87729
G1 X80.873 Y100.352 E17.96115
G1 X82.75 Y98.664 E18.04512
G1 X84.602 Y96.901 E18.13016
G1 X86.462 Y95.029 E18.21793
G1 X87.325 Y94.135 E18.25926
G1 X87.741 Y93.727 E18.27864
G1 X87.922 Y93.559 E18.28685
G1 X88.305 Y93.22 E18.30387
G1 X88.685 Y92.9 E18.32039
G1 X89.536 Y92.254 E18.35592
G1 X89.763 Y92.099 E18.36507
G1 X90.272 Y91.772 E18.38519
G1 X90.727 Y91.498 E18.40285
G1 X91.738 Y90.962 E18.44091
G1 X91.984 Y90.848 E18.44993
G1 X92.435 Y90.651 E18.4663
G1 X92.898 Y90.462 E18.48293
G1 X94.043 Y90.069 E18.5232
G1 X94.307 Y89.995 E18.53232
G1 X94.746 Y89.882 E18.54739
G1 X95.253 Y89.763 E18.56471
G1 X96.452 Y89.554 E18.60519
G1 X96.736 Y89.521 E18.6147
G1 X97.201 Y89.477 E18.63024
G1 X97.675 Y89.443 E18.64605
G1 X98.265 Y89.417 E18.66569
G1 X99.021 Y89.405 E18.69084
G1 X99.189 Y89.404 E18.69642
G1 X145.281 Y89.402 E20.22945
G1 X147.907 Y89.365 E20.3168
G1 X150.415 Y89.258 E20.40029
G1 X152.916 Y89.081 E20.48368
G1 X155.468 Y88.827 E20.56898
G1 X157.953 Y88.509 E20.65231
G1 X160.476 Y88.114 E20.73725
G1 X162.924 Y87.659 E20.82006
G1 X165.408 Y87.123 E20.90458
G1 X167.874 Y86.519 E20.98902
G1 X170.294 Y85.852 E21.07252
G1 X172.722 Y85.11 E21.15696
G1 X175.135 Y84.296 E21.24166
G1 X177.5 Y83.423 E21.32551
G1 X179.83 Y82.487 E21.40902
G1 X182.166 Y81.471 E21.49375
G1 X184.444 Y80.403 E21.57743
G1 X186.709 Y79.262 E21.66178
G1 X189.613 Y77.68 E21.77177
G1 X190.406 Y77.229 E21.80211
G1 X191.226 Y76.809 E21.83276
G1 X192.078 Y76.461 E21.86337
G1 X192.958 Y76.19 E21.89399
G1 X193.858 Y75.995 E21.92462
G1 X194.771 Y75.879 E21.95523
G1 X195.462 Y75.845 E21.97824
G1 X196.038 Y75.835 E21.9974
G1 X196.199 Y75.833 E22.00276
G1 X196.659 Y75.832 E22.01806
G1 X196.834 Y75.833 E22.02388
G1 X197.53 Y75.843 E22.04703
G1 X198.449 Y75.896 E22.07765
G1 X199.36 Y76.029 E22.10827
G1 X200.257 Y76.24 E22.13892
G1 X201.131 Y76.529 E22.16953
G1 X201.977 Y76.892 E22.20015
G1 X202.788 Y77.327 E22.23076
G1 X203.559 Y77.831 E22.2614
G1 X204.283 Y78.399 E22.292
G1 X204.955 Y79.029 E22.32264
G1 X205.404 Y79.518 E22.34472
G1 X205.517 Y79.649 E22.35048
G1 X206.088 Y80.372 E22.38112
G1 X206.594 Y81.141 E22.41173
G1 X207.031 Y81.952 E22.44238
G1 X207.396 Y82.797 E22.47299
G1 X207.686 Y83.671 E22.50362
G1 X207.899 Y84.566 E22.53422
G1 X208.034 Y85.477 E22.56485
G1 X208.089 Y86.38 E22.59494
G1 X208.098 Y86.875 E22.6114
G1 X208.1 Y87.068 E22.61782
G1 X208.1 Y130.225 E24.05323
G1 X208.099 Y130.368 E24.05799
G1 X208.089 Y131.108 E24.0826
G1 X208.08 Y131.421 E24.09302
G1 X208.07 Y131.653 E24.10074
G1 X208.043 Y132.079 E24.11494
G1 X208.009 Y132.486 E24.12852
G1 X207.893 Y133.4 E24.15917
G1 X207.796 Y133.893 E24.17588
G1 X207.723 Y134.223 E24.18712
G1 X207.637 Y134.581 E24.19936
G1 X207.572 Y134.833 E24.20802
G1 X207.218 Y135.947 E24.2469
G1 X207.103 Y136.25 E24.25768
G1 X206.967 Y136.591 E24.26989
G1 X206.839 Y136.896 E24.28089
G1 X206.446 Y137.729 E24.31152
G1 X206.168 Y138.225 E24.33043
G1 X205.958 Y138.577 E24.34407
G1 X205.206 Y139.675 E24.38833
G1 X204.74 Y140.271 E24.41349
G1 X204.141 Y140.971 E24.44414
G1 X203.768 Y141.352 E24.46187
G1 X203.537 Y141.576 E24.47257
G1 X202.929 Y142.122 E24.49975
G1 X202.605 Y142.391 E24.51376
G1 X201.53 Y143.174 E24.55799
G1 X201.315 Y143.311 E24.56647
G1 X200.942 Y143.538 E24.58099
G1 X200.682 Y143.689 E24.59099
G1 X199.568 Y144.251 E24.63249
G1 X199.048 Y144.476 E24.65134
G1 X197.765 Y144.936 E24.69667
G1 X197.274 Y145.077 E24.71366
G1 X196.739 Y145.216 E24.73205
G1 X196.536 Y145.263 E24.73898
G1 X195.293 Y145.474 E24.78091
G1 X195.036 Y145.502 E24.78951
G1 X194.551 Y145.543 E24.8057
G1 X194.136 Y145.569 E24.81953
G1 X193.215 Y145.587 E24.85017
G1 X192.424 Y145.538 E24.87653
G1 X192.082 Y145.504 E24.88796
G1 X191.636 Y145.45 E24.9029
G1 X189 Y145.074 E24.99146
G1 X186.461 Y144.784 E25.07646
G1 X183.947 Y144.57 E25.16038
G1 X181.431 Y144.427 E25.24419
G1 X178.858 Y144.353 E25.32981
G1 X177.536 Y144.344 E25.37378
G1 X109.493 Y144.344 E27.6369
G1 X106.869 Y144.381 E27.72418
G1 X104.36 Y144.488 E27.80771
G1 X101.84 Y144.666 E27.89173
G1 X99.351 Y144.913 E27.97492
G1 X95.716 Y145.399 E28.0969
G1 X95.308 Y145.462 E28.11063
G1 X93.939 Y145.582 E28.15634
G1 X93.27 Y145.597 E28.17859
G1 X93.032 Y145.6 E28.18651
G1 X24.783 Y145.6 E30.45648
G1 X24.632 Y145.599 E30.4615
G1 X23.931 Y145.589 E30.48482
G1 X23.012 Y145.536 E30.51544
G1 X22.101 Y145.403 E30.54606
G1 X21.205 Y145.192 E30.57668
G1 X20.33 Y144.904 E30.60731
G1 X19.484 Y144.541 E30.63793
G1 X18.673 Y144.106 E30.66854
G1 X17.902 Y143.602 E30.69918
G1 X17.178 Y143.033 E30.72981
G1 X16.614 Y142.512 E30.75534
G1 X16.475 Y142.374 E30.76186
G1 X15.85 Y141.698 E30.79248
G1 X15.287 Y140.97 E30.82309
G1 X14.788 Y140.196 E30.85372
G1 X14.359 Y139.381 E30.88435
G1 X14.002 Y138.533 E30.91495
G1 X13.721 Y137.656 E30.94558
G1 X13.516 Y136.758 E30.97622
G1 X13.39 Y135.846 E31.00684
G1 X13.345 Y135.034 E31.03389
G1 X13.335 Y134.452 E31.05325
G1 X13.333 Y134.293 E31.05854
G1 X13.332 Y133.839 E31.07364
G1 X13.333 Y133.661 E31.07956
G1 X13.343 Y132.976 E31.10234
G1 X13.397 Y132.057 E31.13296
G1 X13.529 Y131.146 E31.16358
G1 X13.741 Y130.25 E31.1942
G1 X14.029 Y129.376 E31.22481
G1 X14.393 Y128.53 E31.25544
G1 X14.828 Y127.719 E31.28605
G1 X15.332 Y126.948 E31.31669
G1 X16.163 Y125.931 E31.36037
G1 X16.275 Y125.81 E31.36585
G1 X16.929 Y125.162 E31.39647
G1 X17.637 Y124.573 E31.42711
G1 X18.393 Y124.048 E31.45772
G1 X19.192 Y123.591 E31.48833
G1 X20.028 Y123.204 E31.51897
G1 X20.894 Y122.892 E31.54959
G1 X21.784 Y122.656 E31.58021
G1 X22.691 Y122.498 E31.61084
G0 F6000 X22.879 Y122.878
G1 F1200 X23.711 Y122.816 E31.63859
G1 X25.552 Y122.754 E31.69985
G1 X28.104 Y122.618 E31.78485
G1 X30.676 Y122.407 E31.87068
G1 X33.146 Y122.134 E31.95334
G1 X35.694 Y121.78 E32.0389
G1 X38.206 Y121.357 E32.12362
G1 X40.679 Y120.869 E32.20746
G1 X43.154 Y120.307 E32.29188
G1 X45.639 Y119.67 E32.3772
G1 X48.048 Y118.978 E32.46056
G1 X50.495 Y118.2 E32.54597
G1 X52.886 Y117.364 E32.63021
G1 X55.262 Y116.457 E32.7148
G1 X57.59 Y115.492 E32.79862
G1 X59.93 Y114.444 E32.8839
G1 X62.227 Y113.337 E32.9687
G1 X64.438 Y112.192 E33.05152
G1 X66.707 Y110.936 E33.13778
G1 X68.881 Y109.648 E33.22182
G1 X71.02 Y108.3 E33.30591
G1 X73.12 Y106.892 E33.39001
G1 X75.207 Y105.404 E33.47526
G1 X77.229 Y103.876 E33.55955
G1 X79.214 Y102.285 E33.64416
G1 X81.134 Y100.655 E33.72793
G1 X83.029 Y98.951 E33.81269
G1 X84.879 Y97.19 E33.89764
G1 X86.751 Y95.307 E33.98596
G1 X87.613 Y94.413 E34.02726
G1 X88.013 Y94.02 E34.04591
G1 X88.194 Y93.852 E34.05413
G1 X88.563 Y93.526 E34.0705
G1 X88.943 Y93.206 E34.08703
G1 X89.761 Y92.584 E34.12121
G1 X89.988 Y92.429 E34.13035
G1 X90.478 Y92.115 E34.1497
G1 X90.933 Y91.841 E34.16737
G1 X91.906 Y91.324 E34.20402
G1 X92.152 Y91.21 E34.21303
G1 X92.586 Y91.021 E34.22878
G1 X93.049 Y90.832 E34.24541
G1 X94.151 Y90.455 E34.28415
G1 X94.415 Y90.381 E34.29327
G1 X94.837 Y90.272 E34.30777
G1 X95.344 Y90.153 E34.32509
G1 X96.498 Y89.951 E34.36405
G1 X96.782 Y89.918 E34.37356
G1 X97.229 Y89.876 E34.38849
G1 X97.703 Y89.842 E34.4043
G1 X98.271 Y89.817 E34.42321
G1 X99.027 Y89.805 E34.44836
G1 X99.189 Y89.804 E34.45375
G1 X145.287 Y89.802 E35.98697
G1 X147.894 Y89.765 E36.07369
G1 X150.462 Y89.656 E36.15918
G1 X152.949 Y89.48 E36.2421
G1 X155.488 Y89.227 E36.32697
G1 X158.029 Y88.902 E36.41217
G1 X160.54 Y88.508 E36.49671
G1 X163.01 Y88.049 E36.58027
G1 X165.482 Y87.516 E36.66438
G1 X167.97 Y86.907 E36.74957
G1 X170.445 Y86.225 E36.83496
G1 X172.83 Y85.496 E36.91791
G1 X175.265 Y84.674 E37.00339
G1 X177.639 Y83.797 E37.08756
G1 X179.989 Y82.854 E37.17178
G1 X182.33 Y81.836 E37.25669
G1 X184.643 Y80.751 E37.34166
G1 X186.865 Y79.632 E37.42441
G1 X189.803 Y78.031 E37.53569
G1 X190.604 Y77.576 E37.56633
G1 X191.408 Y77.165 E37.59636
G1 X192.245 Y76.827 E37.62639
G1 X193.109 Y76.563 E37.65643
G1 X193.993 Y76.378 E37.68647
G1 X194.89 Y76.271 E37.71652
G1 X195.469 Y76.245 E37.7358
G1 X196.045 Y76.235 E37.75496
G1 X196.2 Y76.233 E37.76011
G1 X196.66 Y76.232 E37.77541
G1 X196.829 Y76.233 E37.78103
G1 X197.525 Y76.243 E37.80419
G1 X198.426 Y76.296 E37.8342
G1 X199.319 Y76.428 E37.86423
G1 X200.198 Y76.639 E37.89429
