;FLAVOR:Marlin
;TIME:16657
;Filament used: 12.3269m
;Layer height: 0.2
;MINX:11.5
;MINY:64.225
;MINZ:0.2
;MAXX:208.5
;MAXY:162.109
;MAXZ:40
;Generated with Cura_SteamEngine 4.3.0
M140 S50
M105
M190 S50
M104 S200
M105
M109 S200
M82 ;absolute extrusion mode
M201 X500.00 Y500.00 Z100.00 E5000.00 ;Setup machine max acceleration
M203 X500.00 Y500.00 Z10.00 E50.00 ;Setup machine max feedrate
M204 P500.00 R1000.00 T500.00 ;Setup Print/Retract/Travel acceleration
M205 X8.00 Y8.00 Z0.40 E5.00 ;Setup Jerk
M220 S100 ;Reset Feedrate
M221 S100 ;Reset Flowrate

G28 ;Home

G92 E0 ;Reset Extruder
G1 Z2.0 F3000 ;Move Z Axis up
G1 X10.1 Y20 Z0.28 F5000.0 ;Move to start position
G1 X10.1 Y200.0 Z0.28 F1500.0 E15 ;Draw the first line
G1 X10.4 Y200.0 Z0.28 F5000.0 ;Move to side a little
G1 X10.4 Y20 Z0.28 F1500.0 E30 ;Draw the second line
G92 E0 ;Reset Extruder
G1 Z2.0 F3000 ;Move Z Axis up

G92 E0
G92 E0
G1 F2700 E-5
;LAYER_COUNT:200
;LAYER:0
M107
G0 F6000 X20.419 Y110.404 Z0.2
;TYPE:SKIRT
G1 F2700 E0
G1 F1200 X21.346 Y110.265 E0.03118
G1 X22.212 Y110.207 E0.06004
G1 X23.024 Y110.185 E0.08706
G1 X23.194 Y110.182 E0.09272
G1 X23.625 Y110.177 E0.10705
G1 X23.703 Y110.176 E0.10965
G1 X25.683 Y110.167 E0.1755
G1 X32.443 Y110.167 E0.40034
G1 X35.051 Y110.13 E0.48709
G1 X37.572 Y110.023 E0.57102
G1 X40.067 Y109.846 E0.65421
G1 X42.567 Y109.598 E0.73777
G1 X45.06 Y109.279 E0.82136
G1 X47.553 Y108.888 E0.90529
G1 X50.043 Y108.425 E0.98953
G1 X52.506 Y107.895 E1.07333
G1 X54.902 Y107.307 E1.15538
G1 X57.372 Y106.628 E1.24058
G1 X59.775 Y105.892 E1.32417
G1 X62.167 Y105.085 E1.40813
G1 X64.507 Y104.222 E1.49109
G1 X66.863 Y103.276 E1.57553
G1 X69.161 Y102.276 E1.65888
G1 X71.458 Y101.2 E1.74325
G1 X73.682 Y100.081 E1.82606
G1 X75.921 Y98.87 E1.91072
G1 X78.088 Y97.621 E1.99391
G1 X80.233 Y96.301 E2.07768
G1 X82.33 Y94.928 E2.16104
G1 X84.393 Y93.491 E2.24467
G1 X86.429 Y91.986 E2.32888
G1 X88.414 Y90.431 E2.41274
G1 X90.026 Y89.101 E2.48225
G1 X90.433 Y88.757 E2.49998
G1 X91.387 Y88.036 E2.53975
G1 X91.598 Y87.894 E2.54821
G1 X92.065 Y87.597 E2.56662
G1 X92.52 Y87.323 E2.58428
G1 X93.588 Y86.757 E2.62448
G1 X93.833 Y86.644 E2.63346
G1 X94.284 Y86.448 E2.64981
G1 X94.757 Y86.255 E2.6668
G1 X95.908 Y85.858 E2.7073
G1 X96.151 Y85.789 E2.7157
G1 X96.639 Y85.663 E2.73246
G1 X97.158 Y85.541 E2.7502
G1 X98.395 Y85.324 E2.79197
G1 X98.651 Y85.294 E2.80054
G1 X99.155 Y85.246 E2.81738
G1 X99.692 Y85.208 E2.83528
G1 X100.306 Y85.182 E2.85572
G1 X100.987 Y85.172 E2.87838
G1 X101.149 Y85.171 E2.88377
G1 X134.192 Y85.17 E3.98278
G1 X136.8 Y85.133 E4.06953
G1 X139.322 Y85.026 E4.15349
G1 X141.801 Y84.85 E4.23615
G1 X144.327 Y84.599 E4.32058
G1 X146.827 Y84.279 E4.40441
G1 X149.293 Y83.892 E4.48743
G1 X151.789 Y83.429 E4.57186
G1 X154.218 Y82.905 E4.65451
G1 X156.688 Y82.301 E4.73908
G1 X159.125 Y81.629 E4.82316
G1 X161.503 Y80.901 E4.90588
G1 X163.906 Y80.09 E4.99023
G1 X166.294 Y79.21 E5.07488
G1 X168.573 Y78.294 E5.15657
G1 X170.918 Y77.275 E5.24161
G1 X173.199 Y76.205 E5.32541
G1 X175.433 Y75.079 E5.40862
G1 X177.673 Y73.871 E5.49327
G1 X179.82 Y72.631 E5.57573
G1 X182.002 Y71.288 E5.66095
G1 X184.072 Y69.933 E5.74323
G1 X186.137 Y68.495 E5.82693
G1 X188.336 Y66.868 E5.91791
G1 X188.823 Y66.496 E5.93829
G1 X189.592 Y65.958 E5.96951
G1 X190.404 Y65.489 E6.0007
G1 X191.253 Y65.09 E6.0319
G1 X192.133 Y64.765 E6.0631
G1 X193.037 Y64.516 E6.09429
G1 X193.959 Y64.345 E6.12547
G1 X195.159 Y64.241 E6.16554
G1 X195.48 Y64.231 E6.17622
G1 X195.812 Y64.226 E6.18726
G1 X196.81 Y64.225 E6.22046
G1 X196.971 Y64.226 E6.22581
G1 X197.631 Y64.235 E6.24776
G1 X198.567 Y64.288 E6.27895
G1 X199.496 Y64.42 E6.31015
G1 X200.41 Y64.631 E6.34135
G1 X201.302 Y64.919 E6.37253
G1 X202.167 Y65.282 E6.40373
G1 X202.998 Y65.717 E6.43493
G1 X203.788 Y66.222 E6.46611
G1 X204.533 Y66.792 E6.49731
G1 X205.227 Y67.423 E6.52851
G1 X205.864 Y68.112 E6.55972
G1 X206.44 Y68.852 E6.59091
G1 X206.951 Y69.638 E6.62209
G1 X207.393 Y70.465 E6.65328
G1 X207.764 Y71.327 E6.68449
G1 X208.059 Y72.217 E6.71568
G1 X208.278 Y73.129 E6.74687
G1 X208.418 Y74.056 E6.77805
G1 X208.459 Y74.536 E6.79408
G1 X208.477 Y74.819 E6.80351
G1 X208.499 Y75.517 E6.82674
G1 X208.5 Y122.431 E8.3871
G1 X208.499 Y122.567 E8.39163
G1 X208.49 Y123.294 E8.41581
G1 X208.439 Y124.231 E8.44702
G1 X208.307 Y125.159 E8.47819
G1 X208.098 Y126.073 E8.50938
G1 X207.811 Y126.966 E8.54058
G1 X207.449 Y127.832 E8.57179
G1 X207.015 Y128.663 E8.60298
G1 X206.511 Y129.454 E8.63417
G1 X205.942 Y130.199 E8.66535
G1 X205.311 Y130.894 E8.69657
G1 X204.624 Y131.532 E8.72776
G1 X203.885 Y132.109 E8.75894
G1 X203.099 Y132.621 E8.79014
G1 X202.273 Y133.064 E8.82131
G1 X201.411 Y133.436 E8.85254
G1 X200.522 Y133.732 E8.8837
G1 X199.61 Y133.952 E8.91491
G1 X198.683 Y134.093 E8.94609
G1 X197.799 Y134.154 E8.97557
G1 X197.478 Y134.163 E8.98625
G1 X197.17 Y134.167 E8.99649
G1 X139.907 Y134.167 E10.90107
G1 X137.299 Y134.204 E10.98782
G1 X134.778 Y134.311 E11.07174
G1 X132.283 Y134.488 E11.15494
G1 X129.783 Y134.736 E11.23849
G1 X127.29 Y135.055 E11.32209
G1 X124.797 Y135.446 E11.40602
G1 X122.307 Y135.909 E11.49026
G1 X119.844 Y136.439 E11.57405
G1 X117.448 Y137.027 E11.65611
G1 X114.978 Y137.706 E11.74131
G1 X112.575 Y138.442 E11.8249
G1 X110.183 Y139.249 E11.90886
G1 X107.843 Y140.112 E11.99181
G1 X105.487 Y141.058 E12.07625
G1 X103.189 Y142.058 E12.15961
G1 X100.892 Y143.134 E12.24397
G1 X98.668 Y144.253 E12.32678
G1 X96.429 Y145.464 E12.41144
G1 X94.262 Y146.713 E12.49463
G1 X92.117 Y148.033 E12.5784
G1 X90.02 Y149.406 E12.66177
G1 X87.957 Y150.843 E12.74539
G1 X85.921 Y152.348 E12.8296
G1 X83.938 Y153.901 E12.91338
G1 X81.998 Y155.512 E12.99725
G1 X80.115 Y157.168 E13.08065
G1 X78.072 Y159.07 E13.17349
G1 X78.07 Y159.068 E13.17358
G1 X77.478 Y159.598 E13.20001
G1 X76.728 Y160.162 E13.23122
G1 X75.933 Y160.66 E13.26242
G1 X75.099 Y161.089 E13.29362
G1 X74.231 Y161.444 E13.32481
G1 X73.336 Y161.725 E13.35601
G1 X72.421 Y161.928 E13.38718
G1 X71.491 Y162.053 E13.41839
G1 X70.738 Y162.095 E13.44348
G1 X70.238 Y162.106 E13.46011
G1 X69.996 Y162.109 E13.46816
G1 X23.207 Y162.109 E15.02437
G1 X23.049 Y162.108 E15.02962
G1 X22.351 Y162.098 E15.05284
G1 X21.415 Y162.044 E15.08402
G1 X20.487 Y161.912 E15.1152
G1 X19.573 Y161.7 E15.14641
G1 X18.681 Y161.411 E15.17759
G1 X17.816 Y161.048 E15.20879
G1 X16.986 Y160.612 E15.23998
G1 X16.195 Y160.107 E15.27119
G1 X15.451 Y159.536 E15.30238
G1 X14.758 Y158.904 E15.33358
G1 X14.121 Y158.216 E15.36476
G1 X13.546 Y157.475 E15.39596
G1 X13.035 Y156.689 E15.42714
G1 X12.593 Y155.861 E15.45836
G1 X12.224 Y154.999 E15.48955
G1 X11.929 Y154.109 E15.52073
G1 X11.711 Y153.197 E15.55192
G1 X11.571 Y152.269 E15.58313
G1 X11.513 Y151.397 E15.6122
G1 X11.504 Y151.065 E15.62325
G1 X11.5 Y150.767 E15.63316
G1 X11.5 Y121.873 E16.59418
G1 X11.501 Y121.709 E16.59963
G1 X11.511 Y121.039 E16.62192
G1 X11.565 Y120.103 E16.6531
G1 X11.699 Y119.174 E16.68432
G1 X11.911 Y118.261 E16.71549
G1 X12.2 Y117.368 E16.74671
G1 X12.564 Y116.504 E16.7779
G1 X13.001 Y115.674 E16.80909
G1 X13.506 Y114.884 E16.84028
G1 X14.077 Y114.14 E16.87147
G1 X14.709 Y113.447 E16.90267
G1 X15.398 Y112.811 E16.93385
G1 X16.139 Y112.236 E16.96505
G1 X16.926 Y111.726 E16.99624
G1 X17.754 Y111.284 E17.02746
G1 X18.616 Y110.915 E17.05865
G1 X19.506 Y110.621 E17.08982
G1 X20.419 Y110.404 E17.12103
G0 F6000 X20.761 Y110.748
G1 F1200 X21.675 Y110.636 E17.15166
G1 X22.223 Y110.607 E17.16991
G1 X23.035 Y110.585 E17.19693
G1 X23.199 Y110.582 E17.20238
G1 X23.63 Y110.577 E17.21672
G1 X23.705 Y110.576 E17.21922
G1 X25.685 Y110.567 E17.28507
G1 X32.449 Y110.567 E17.51004
G1 X35.074 Y110.53 E17.59736
G1 X37.582 Y110.423 E17.68085
G1 X40.102 Y110.245 E17.76488
G1 X42.617 Y109.996 E17.84893
G1 X45.106 Y109.677 E17.9324
G1 X47.658 Y109.276 E18.01832
G1 X50.089 Y108.824 E18.10056
G1 X52.588 Y108.286 E18.18558
G1 X55.024 Y107.689 E18.269
G1 X57.49 Y107.011 E18.35406
G1 X59.883 Y106.278 E18.4373
G1 X62.297 Y105.464 E18.52204
G1 X64.647 Y104.597 E18.60535
G1 X67.035 Y103.638 E18.69094
G1 X69.312 Y102.647 E18.77353
G1 X71.629 Y101.561 E18.85864
G1 X73.887 Y100.425 E18.94271
G1 X76.089 Y99.235 E19.02596
G1 X78.276 Y97.974 E19.10993
G1 X80.456 Y96.632 E19.19507
G1 X82.555 Y95.258 E19.27851
G1 X84.654 Y93.796 E19.36359
G1 X86.668 Y92.308 E19.44687
G1 X88.676 Y90.735 E19.53171
G1 X90.237 Y89.446 E19.59905
G1 X90.691 Y89.063 E19.6188
G1 X91.611 Y88.368 E19.65715
G1 X91.822 Y88.226 E19.66561
G1 X92.272 Y87.939 E19.68336
G1 X92.727 Y87.665 E19.70103
G1 X93.755 Y87.12 E19.73973
G1 X94 Y87.007 E19.7487
G1 X94.435 Y86.819 E19.76446
G1 X94.908 Y86.626 E19.78145
G1 X96.018 Y86.243 E19.82051
G1 X96.261 Y86.174 E19.82891
G1 X96.73 Y86.052 E19.84503
G1 X97.249 Y85.93 E19.86276
G1 X98.441 Y85.721 E19.90301
G1 X98.697 Y85.691 E19.91158
G1 X99.183 Y85.645 E19.92782
G1 X99.72 Y85.607 E19.94573
G1 X100.312 Y85.582 E19.96543
G1 X100.993 Y85.572 E19.98809
G1 X101.149 Y85.571 E19.99327
G1 X134.198 Y85.57 E21.09249
G1 X136.823 Y85.533 E21.17981
G1 X139.331 Y85.426 E21.2633
G1 X141.832 Y85.249 E21.34669
G1 X144.384 Y84.995 E21.43199
G1 X146.869 Y84.677 E21.51531
G1 X149.357 Y84.287 E21.59908
G1 X151.874 Y83.819 E21.68423
G1 X154.326 Y83.291 E21.76765
G1 X156.792 Y82.687 E21.85209
G1 X159.202 Y82.023 E21.93524
G1 X161.643 Y81.276 E22.02014
G1 X164.068 Y80.458 E22.10526
G1 X166.403 Y79.597 E22.18804
G1 X168.746 Y78.656 E22.27202
G1 X171.098 Y77.633 E22.35732
G1 X173.341 Y76.581 E22.43972
G1 X175.624 Y75.431 E22.52474
G1 X177.857 Y74.226 E22.60914
G1 X180.051 Y72.959 E22.69341
G1 X182.183 Y71.647 E22.77667
G1 X184.298 Y70.263 E22.86073
G1 X186.397 Y68.801 E22.94581
G1 X188.525 Y67.226 E23.03387
G1 X189.066 Y66.813 E23.05651
G1 X189.821 Y66.287 E23.08711
G1 X190.619 Y65.828 E23.11773
G1 X191.454 Y65.439 E23.14837
G1 X192.319 Y65.125 E23.17897
G1 X193.209 Y64.887 E23.20962
G1 X194.115 Y64.727 E23.24022
G1 X195.172 Y64.641 E23.27549
G1 X195.493 Y64.631 E23.28617
G1 X195.812 Y64.626 E23.29678
G1 X196.81 Y64.625 E23.32997
G1 X196.966 Y64.626 E23.33516
G1 X197.626 Y64.635 E23.35712
G1 X198.545 Y64.688 E23.38773
G1 X199.456 Y64.82 E23.41835
G1 X200.352 Y65.03 E23.44896
G1 X201.227 Y65.318 E23.4796
G1 X202.073 Y65.68 E23.5102
G1 X202.885 Y66.115 E23.54084
G1 X203.656 Y66.618 E23.57146
G1 X204.38 Y67.186 E23.60207
G1 X205.052 Y67.815 E23.63268
G1 X205.667 Y68.5 E23.6633
G1 X206.221 Y69.236 E23.69394
G1 X206.708 Y70.017 E23.72455
G1 X207.126 Y70.837 E23.75516
G1 X207.471 Y71.691 E23.7858
G1 X207.741 Y72.571 E23.81641
G1 X207.933 Y73.471 E23.84702
G1 X208.06 Y74.561 E23.88352
G1 X208.078 Y74.844 E23.89295
G1 X208.099 Y75.517 E23.91535
G1 X208.1 Y122.431 E25.47571
G1 X208.099 Y122.562 E25.48007
G1 X208.09 Y123.289 E25.50425
G1 X208.039 Y124.208 E25.53486
G1 X207.908 Y125.12 E25.56551
G1 X207.698 Y126.016 E25.59612
G1 X207.412 Y126.891 E25.62674
G1 X207.051 Y127.738 E25.65736
G1 X206.617 Y128.55 E25.68798
G1 X206.115 Y129.322 E25.71861
G1 X205.547 Y130.047 E25.74924
G1 X204.919 Y130.72 E25.77986
G1 X204.235 Y131.336 E25.81047
G1 X203.5 Y131.89 E25.84109
G1 X202.72 Y132.379 E25.87171
G1 X201.9 Y132.798 E25.90233
G1 X201.047 Y133.144 E25.93295
G1 X200.167 Y133.415 E25.96358
G1 X199.267 Y133.608 E25.99419
G1 X198.353 Y133.723 E26.02483
G1 X197.788 Y133.754 E26.04365
G1 X197.467 Y133.763 E26.05433
G1 X197.17 Y133.767 E26.06421
G1 X139.901 Y133.767 E27.96898
G1 X137.276 Y133.804 E28.0563
G1 X134.768 Y133.911 E28.13979
G1 X132.248 Y134.089 E28.22382
G1 X129.733 Y134.338 E28.30788
G1 X127.244 Y134.657 E28.39134
G1 X124.692 Y135.058 E28.47726
G1 X122.261 Y135.51 E28.5595
G1 X119.762 Y136.048 E28.64452
G1 X117.326 Y136.645 E28.72794
G1 X114.86 Y137.323 E28.813
G1 X112.467 Y138.056 E28.89625
G1 X110.053 Y138.87 E28.98098
G1 X107.703 Y139.737 E29.06429
G1 X105.315 Y140.696 E29.14988
G1 X103.038 Y141.687 E29.23247
G1 X100.721 Y142.773 E29.31758
G1 X98.463 Y143.909 E29.40165
G1 X96.261 Y145.099 E29.4849
G1 X94.074 Y146.36 E29.56887
G1 X91.894 Y147.702 E29.65401
G1 X89.795 Y149.076 E29.73745
G1 X87.696 Y150.538 E29.82253
G1 X85.682 Y152.026 E29.90582
G1 X83.681 Y153.594 E29.99037
G1 X81.762 Y155.188 E30.07334
G1 X79.862 Y156.858 E30.15748
G1 X77.8 Y158.778 E30.25119
G1 X77.797 Y158.775 E30.25133
G1 X77.211 Y159.3 E30.2775
G1 X76.474 Y159.852 E30.30812
G1 X75.692 Y160.337 E30.33873
G1 X74.87 Y160.753 E30.36937
G1 X74.016 Y161.097 E30.39999
G1 X73.135 Y161.364 E30.43061
G1 X72.234 Y161.555 E30.46124
G1 X71.32 Y161.666 E30.49187
G1 X70.729 Y161.695 E30.51155
G1 X70.229 Y161.706 E30.52818
G1 X69.996 Y161.709 E30.53593
G1 X23.207 Y161.709 E32.09214
G1 X23.055 Y161.708 E32.0972
G1 X22.357 Y161.698 E32.12041
G1 X21.438 Y161.645 E32.15103
G1 X20.527 Y161.512 E32.18165
G1 X19.631 Y161.301 E32.21227
G1 X18.757 Y161.013 E32.24288
G1 X17.91 Y160.65 E32.27352
G1 X17.099 Y160.215 E32.30413
G1 X16.329 Y159.711 E32.33474
G1 X15.605 Y159.142 E32.36537
G1 X14.933 Y158.512 E32.39601
G1 X14.318 Y157.827 E32.42662
G1 X13.765 Y157.091 E32.45724
G1 X13.278 Y156.31 E32.48786
G1 X12.861 Y155.489 E32.51848
G1 X12.516 Y154.635 E32.54912
G1 X12.247 Y153.755 E32.57972
G1 X12.055 Y152.854 E32.61036
G1 X11.942 Y151.941 E32.64096
G1 X11.913 Y151.386 E32.65945
G1 X11.904 Y151.054 E32.67049
G1 X11.9 Y150.767 E32.68004
G1 X11.9 Y121.873 E33.64106
G1 X11.901 Y121.715 E33.64631
G1 X11.911 Y121.045 E33.6686
G1 X11.965 Y120.126 E33.69922
G1 X12.098 Y119.215 E33.72984
G1 X12.31 Y118.319 E33.76046
G1 X12.599 Y117.445 E33.79108
G1 X12.962 Y116.599 E33.8217
G1 X13.398 Y115.788 E33.85233
G1 X13.902 Y115.017 E33.88296
G1 X14.471 Y114.294 E33.91356
G1 X15.101 Y113.622 E33.9442
G1 X15.787 Y113.008 E33.97482
G1 X16.523 Y112.456 E34.00542
G1 X17.305 Y111.969 E34.03606
G1 X18.126 Y111.552 E34.06669
G1 X18.98 Y111.208 E34.09731
G1 X19.86 Y110.94 E34.12791
G1 X20.761 Y110.748 E34.15855
G0 F6000 X20.211 Y111.265
G1 F1200 X21.099 Y111.101 E34.18858
G1 X22.234 Y111.007 E34.22646
G1 X23.046 Y110.985 E34.25348
G1 X23.204 Y110.982 E34.25873
G1 X23.635 Y110.977 E34.27307
G1 X23.707 Y110.976 E34.27546
G1 X25.687 Y110.967 E34.34132
G1 X32.455 Y110.967 E34.56642
G1 X35.061 Y110.93 E34.65311
G1 X37.626 Y110.821 E34.7385
G1 X40.133 Y110.643 E34.82209
G1 X42.674 Y110.392 E34.90702
G1 X45.182 Y110.071 E34.99111
G1 X47.687 Y109.677 E35.07545
G1 X50.174 Y109.215 E35.15959
G1 X52.695 Y108.672 E35.24536
G1 X55.12 Y108.077 E35.32841
G1 X57.586 Y107.4 E35.41346
G1 X60.013 Y106.657 E35.49788
G1 X62.415 Y105.846 E35.5822
G1 X64.828 Y104.956 E35.66775
G1 X67.135 Y104.03 E35.75043
G1 X69.506 Y102.998 E35.83643
G1 X71.785 Y101.93 E35.92014
G1 X74.092 Y100.769 E36.00604
G1 X76.301 Y99.575 E36.08956
G1 X78.48 Y98.318 E36.17323
G1 X80.664 Y96.975 E36.2585
G1 X82.774 Y95.593 E36.3424
G1 X84.881 Y94.126 E36.42779
G1 X86.907 Y92.629 E36.51157
G1 X88.912 Y91.057 E36.59631
G1 X90.511 Y89.738 E36.66525
G1 X90.949 Y89.368 E36.68432
G1 X91.834 Y88.7 E36.7212
G1 X92.045 Y88.558 E36.72966
G1 X92.478 Y88.282 E36.74674
G1 X92.933 Y88.008 E36.76441
G1 X93.923 Y87.484 E36.80166
G1 X94.168 Y87.371 E36.81064
G1 X94.586 Y87.189 E36.8258
G1 X95.059 Y86.996 E36.84279
G1 X96.127 Y86.628 E36.88036
G1 X96.37 Y86.559 E36.88876
G1 X96.822 Y86.442 E36.90429
G1 X97.341 Y86.32 E36.92203
G1 X98.488 Y86.118 E36.96076
G1 X98.744 Y86.088 E36.96933
G1 X99.211 Y86.044 E36.98494
G1 X99.748 Y86.006 E37.00284
G1 X100.318 Y85.982 E37.02182
G1 X100.999 Y85.972 E37.04447
G1 X101.149 Y85.971 E37.04946
G1 X134.204 Y85.97 E38.14887
G1 X136.81 Y85.933 E38.23556
G1 X139.378 Y85.824 E38.32105
G1 X141.865 Y85.648 E38.40397
G1 X144.404 Y85.395 E38.48884
G1 X146.945 Y85.07 E38.57404
G1 X149.455 Y84.676 E38.65854
G1 X151.926 Y84.217 E38.74214
G1 X154.399 Y83.684 E38.82628
G1 X156.888 Y83.075 E38.9115
G1 X159.362 Y82.393 E38.99686
G1 X161.741 Y81.665 E39.07961
G1 X164.186 Y80.84 E39.16543
G1 X166.554 Y79.967 E39.24937
G1 X168.905 Y79.023 E39.33364
G1 X171.262 Y77.998 E39.41912
G1 X173.541 Y76.929 E39.50285
G1 X175.815 Y75.783 E39.58754
G1 X178.042 Y74.582 E39.6717
G1 X180.228 Y73.319 E39.75567
G1 X182.416 Y71.973 E39.84111
G1 X184.54 Y70.583 E39.92553
G1 X186.595 Y69.152 E40.00882
G1 X188.797 Y67.522 E40.09994
G1 X189.309 Y67.131 E40.12137
