;FLAVOR:Marlin
;TIME:3234
;Filament used: 1.81539m
;Layer height: 0.16
;MINX:102.198
;MINY:76.882
;MINZ:0.2
;MAXX:145.741
;MAXY:146.979
;MAXZ:17.84
;Generated with Cura_SteamEngine 4.3.0
M140 S50
M105
M190 S50
M104 S200
M105
M109 S200
M82 ;absolute extrusion mode
M201 X500.00 Y500.00 Z100.00 E5000.00 ;Setup machine max acceleration
M203 X500.00 Y500.00 Z10.00 E50.00 ;Setup machine max feedrate
M204 P500.00 R1000.00 T500.00 ;Setup Print/Retract/Travel acceleration
M205 X8.00 Y8.00 Z0.40 E5.00 ;Setup Jerk
M220 S100 ;Reset Feedrate
M221 S100 ;Reset Flowrate

G28 ;Home

G92 E0 ;Reset Extruder
G1 Z2.0 F3000 ;Move Z Axis up
G1 X10.1 Y20 Z0.28 F5000.0 ;Move to start position
G1 X10.1 Y200.0 Z0.28 F1500.0 E15 ;Draw the first line
G1 X10.4 Y200.0 Z0.28 F5000.0 ;Move to side a little
G1 X10.4 Y20 Z0.28 F1500.0 E30 ;Draw the second line
G92 E0 ;Reset Extruder
G1 Z2.0 F3000 ;Move Z Axis up

G92 E0
G92 E0
G1 F2700 E-5
;LAYER_COUNT:105
;LAYER:0
M107
G0 F6000 X116.031 Y81.861 Z0.2
;TYPE:SKIRT
G1 F2700 E0
G1 F1200 X116.588 Y81.106 E0.03121
G1 X117.274 Y80.332 E0.0656
G1 X117.385 Y80.218 E0.0709
G1 X118.067 Y79.575 E0.10207
G1 X118.802 Y78.992 E0.13328
G1 X119.583 Y78.473 E0.16446
G1 X120.406 Y78.024 E0.19565
G1 X121.265 Y77.646 E0.22686
G1 X122.152 Y77.342 E0.25805
G1 X123.062 Y77.115 E0.28924
G1 X123.988 Y76.966 E0.32044
G1 X125.069 Y76.894 E0.35647
G1 X125.627 Y76.884 E0.37503
G1 X125.824 Y76.882 E0.38158
G1 X133.643 Y76.882 E0.64165
G1 X133.8 Y76.883 E0.64687
G1 X134.501 Y76.893 E0.67018
G1 X135.437 Y76.946 E0.70137
G1 X136.366 Y77.079 E0.73258
G1 X137.279 Y77.291 E0.76375
G1 X138.172 Y77.579 E0.79496
G1 X139.036 Y77.943 E0.82615
G1 X139.867 Y78.379 E0.85736
G1 X140.657 Y78.884 E0.88854
G1 X141.401 Y79.454 E0.91972
G1 X142.122 Y80.114 E0.95223
G1 X142.235 Y80.227 E0.95754
G1 X142.869 Y80.918 E0.98873
G1 X143.443 Y81.66 E1.01993
G1 X143.95 Y82.449 E1.05113
G1 X144.389 Y83.277 E1.0823
G1 X144.756 Y84.141 E1.11352
G1 X145.048 Y85.032 E1.14471
G1 X145.262 Y85.945 E1.17589
G1 X145.399 Y86.873 E1.20709
G1 X145.455 Y87.791 E1.23768
G1 X145.465 Y88.304 E1.25475
G1 X145.467 Y88.517 E1.26183
G1 X145.468 Y103.051 E1.74524
G1 X145.467 Y103.208 E1.75046
G1 X145.457 Y103.914 E1.77394
G1 X145.431 Y104.522 E1.79418
G1 X145.384 Y105.197 E1.81669
G1 X145.371 Y105.371 E1.82249
G1 X145.261 Y106.661 E1.86555
G1 X145.117 Y109.176 E1.94934
G1 X145.046 Y111.665 E2.03216
G1 X145.044 Y114.19 E2.11614
G1 X145.115 Y116.71 E2.19999
G1 X145.256 Y119.228 E2.28387
G1 X145.472 Y121.772 E2.36879
G1 X145.498 Y122.003 E2.37652
G1 X145.516 Y122.167 E2.38201
G1 X145.622 Y123.26 E2.41853
G1 X145.646 Y123.558 E2.42847
G1 X145.688 Y124.161 E2.44858
G1 X145.704 Y124.432 E2.45761
G1 X145.741 Y125.256 E2.48504
G1 X145.728 Y126.475 E2.52559
G1 X145.685 Y127.125 E2.54725
G1 X145.656 Y127.474 E2.5589
G1 X145.586 Y128.187 E2.58273
G1 X145.453 Y129.126 E2.61427
G1 X145.415 Y129.33 E2.62118
G1 X145.37 Y129.559 E2.62894
G1 X145.305 Y129.871 E2.63954
G1 X145.246 Y130.135 E2.64853
G1 X145.062 Y130.921 E2.67538
G1 X144.742 Y132.026 E2.71365
G1 X144.539 Y132.61 E2.73421
G1 X144.416 Y132.947 E2.74614
G1 X144.136 Y133.675 E2.77208
G1 X143.618 Y134.821 E2.81391
G1 X143.283 Y135.462 E2.83797
G1 X143.109 Y135.782 E2.85008
G1 X142.794 Y136.339 E2.87137
G1 X142.202 Y137.272 E2.90812
G1 X141.896 Y137.705 E2.92575
G1 X141.769 Y137.881 E2.93297
G1 X141.576 Y138.143 E2.9438
G1 X141.495 Y138.252 E2.94831
G1 X141.074 Y138.809 E2.97153
G1 X140.266 Y139.76 E3.01304
G1 X139.791 Y140.259 E3.03595
G1 X139.589 Y140.466 E3.04557
G1 X138.997 Y141.056 E3.07337
G1 X138.043 Y141.903 E3.1158
G1 X137.471 Y142.354 E3.14003
G1 X137.238 Y142.532 E3.14978
G1 X136.588 Y143.017 E3.17676
G1 X135.57 Y143.693 E3.2174
G1 X134.981 Y144.038 E3.24011
G1 X134.687 Y144.203 E3.25132
G1 X133.981 Y144.588 E3.27806
G1 X132.868 Y145.117 E3.31905
G1 X132.245 Y145.371 E3.34143
G1 X131.969 Y145.479 E3.35129
G1 X131.183 Y145.775 E3.37922
G1 X130.094 Y146.122 E3.41724
G1 X129.491 Y146.28 E3.43797
G1 X129.239 Y146.343 E3.44661
G1 X129.028 Y146.393 E3.45382
G1 X128.895 Y146.423 E3.45836
G1 X128.198 Y146.579 E3.48211
G1 X126.948 Y146.784 E3.52424
G1 X126.189 Y146.864 E3.54963
G1 X125.912 Y146.89 E3.55888
G1 X125.186 Y146.948 E3.5831
G1 X124.009 Y146.979 E3.62226
G1 X123.352 Y146.961 E3.64412
G1 X123.134 Y146.953 E3.65138
G1 X122.859 Y146.94 E3.66054
G1 X122.714 Y146.932 E3.66537
G1 X122.086 Y146.894 E3.68629
G1 X120.83 Y146.745 E3.72836
G1 X119.978 Y146.594 E3.75714
G1 X119.613 Y146.523 E3.76951
G1 X119.062 Y146.406 E3.78824
G1 X117.844 Y146.073 E3.83024
G1 X116.966 Y145.778 E3.86105
G1 X116.656 Y145.669 E3.87198
G1 X115.874 Y145.38 E3.8997
G1 X114.996 Y145.012 E3.93137
G1 X114.733 Y144.888 E3.94104
G1 X114.459 Y144.754 E3.95118
G1 X114.117 Y144.581 E3.96393
G1 X113.947 Y144.493 E3.9703
G1 X113.301 Y144.152 E3.99459
G1 X112.233 Y143.508 E4.03607
G1 X111.634 Y143.099 E4.0602
G1 X111.4 Y142.935 E4.0697
G1 X110.782 Y142.489 E4.09505
G1 X109.789 Y141.68 E4.13765
G1 X109.253 Y141.189 E4.16183
G1 X109.049 Y140.998 E4.17112
G1 X108.467 Y140.437 E4.19801
G1 X107.637 Y139.543 E4.23858
G1 X107.085 Y138.878 E4.26733
G1 X106.899 Y138.648 E4.27717
G1 X106.503 Y138.144 E4.29848
G1 X105.798 Y137.134 E4.33945
G1 X105.383 Y136.463 E4.36569
G1 X105.216 Y136.185 E4.37648
G1 X104.829 Y135.516 E4.40218
G1 X104.258 Y134.382 E4.44441
G1 X103.949 Y133.669 E4.47026
G1 X103.828 Y133.378 E4.48074
G1 X103.571 Y132.735 E4.50377
G1 X103.177 Y131.561 E4.54496
G1 X102.956 Y130.755 E4.57276
G1 X102.884 Y130.481 E4.58218
G1 X102.712 Y129.784 E4.60606
G1 X102.479 Y128.532 E4.64841
G1 X102.352 Y127.53 E4.68201
G1 X102.321 Y127.253 E4.69128
G1 X102.253 Y126.58 E4.71378
G1 X102.198 Y125.359 E4.75443
G1 X102.204 Y124.785 E4.77352
G1 X102.211 Y124.48 E4.78367
G1 X102.234 Y123.878 E4.8037
G1 X102.355 Y122.619 E4.84577
G1 X102.5 Y121.68 E4.87737
G1 X102.56 Y121.329 E4.88922
G1 X102.708 Y120.541 E4.91588
G1 X102.913 Y119.655 E4.94613
G1 X102.993 Y119.364 E4.95617
G1 X103.1 Y118.998 E4.96885
G1 X103.261 Y118.483 E4.9868
G1 X103.311 Y118.328 E4.99221
G1 X103.51 Y117.723 E5.0134
G1 X103.975 Y116.542 E5.05561
G1 X104.315 Y115.807 E5.08255
G1 X104.451 Y115.525 E5.09296
G1 X104.862 Y114.699 E5.12365
G1 X104.933 Y114.557 E5.12893
G1 X105.97 Y112.545 E5.20421
G1 X107.06 Y110.28 E5.28782
G1 X108.078 Y107.998 E5.37093
G1 X109.062 Y105.619 E5.45655
G1 X109.93 Y103.328 E5.53804
G1 X110.766 Y100.924 E5.62269
G1 X111.52 Y98.545 E5.7057
G1 X112.211 Y96.126 E5.78937
G1 X112.837 Y93.676 E5.87348
G1 X113.405 Y91.167 E5.95904
G1 X113.876 Y88.751 E6.04091
G1 X114.307 Y86.185 E6.12745
G1 X114.501 Y85.268 E6.15862
G1 X114.773 Y84.37 E6.18983
G1 X115.121 Y83.499 E6.22103
G1 X115.541 Y82.661 E6.2522
G1 X116.031 Y81.861 E6.28341
G0 F6000 X116.411 Y82.015
G1 F1200 X116.963 Y81.279 E6.314
G1 X117.56 Y80.611 E6.3438
G1 X117.671 Y80.497 E6.34909
G1 X118.342 Y79.866 E6.37973
G1 X119.064 Y79.296 E6.41033
G1 X119.834 Y78.79 E6.44097
G1 X120.644 Y78.353 E6.47158
G1 X121.489 Y77.988 E6.5022
G1 X122.363 Y77.697 E6.53284
G1 X123.258 Y77.484 E6.56343
G1 X124.169 Y77.349 E6.59407
G1 X125.076 Y77.294 E6.62429
G1 X125.634 Y77.284 E6.64285
G1 X125.824 Y77.282 E6.64917
G1 X133.643 Y77.282 E6.90923
G1 X133.794 Y77.283 E6.91425
G1 X134.495 Y77.293 E6.93757
G1 X135.414 Y77.346 E6.96819
G1 X136.325 Y77.479 E6.99881
G1 X137.221 Y77.69 E7.02942
G1 X138.096 Y77.978 E7.06006
G1 X138.942 Y78.341 E7.09068
G1 X139.753 Y78.776 E7.12129
G1 X140.524 Y79.28 E7.15193
G1 X141.248 Y79.849 E7.18256
G1 X141.839 Y80.397 E7.20936
G1 X141.952 Y80.51 E7.21468
G1 X142.574 Y81.188 E7.24528
G1 X143.135 Y81.918 E7.2759
G1 X143.631 Y82.694 E7.30653
G1 X144.057 Y83.51 E7.33715
G1 X144.411 Y84.36 E7.36777
G1 X144.689 Y85.238 E7.3984
G1 X144.891 Y86.136 E7.42902
G1 X145.014 Y87.049 E7.45966
G1 X145.055 Y87.798 E7.48461
G1 X145.065 Y88.311 E7.50167
G1 X145.067 Y88.517 E7.50853
G1 X145.068 Y103.051 E7.99193
G1 X145.067 Y103.202 E7.99695
G1 X145.057 Y103.908 E8.02044
G1 X145.032 Y104.494 E8.03994
G1 X144.985 Y105.169 E8.06245
G1 X144.972 Y105.337 E8.06805
G1 X144.863 Y106.605 E8.11038
G1 X144.719 Y109.141 E8.19487
G1 X144.646 Y111.689 E8.27965
G1 X144.644 Y114.201 E8.3632
G1 X144.715 Y116.745 E8.44784
G1 X144.856 Y119.249 E8.53126
G1 X145.07 Y121.774 E8.61554
G1 X145.101 Y122.047 E8.62468
G1 X145.118 Y122.206 E8.63
G1 X145.224 Y123.299 E8.66652
G1 X145.247 Y123.585 E8.67607
G1 X145.289 Y124.188 E8.69617
G1 X145.304 Y124.45 E8.7049
G1 X145.341 Y125.274 E8.73233
G1 X145.329 Y126.449 E8.77142
G1 X145.286 Y127.099 E8.79308
G1 X145.258 Y127.435 E8.8043
G1 X145.188 Y128.148 E8.82812
G1 X145.06 Y129.053 E8.85852
G1 X145.022 Y129.257 E8.86543
G1 X144.978 Y129.478 E8.87292
G1 X144.913 Y129.79 E8.88352
G1 X144.857 Y130.044 E8.89217
G1 X144.673 Y130.83 E8.91902
G1 X144.364 Y131.894 E8.95587
G1 X144.161 Y132.478 E8.97644
G1 X144.042 Y132.803 E8.98795
G1 X143.762 Y133.531 E9.01389
G1 X143.263 Y134.636 E9.05422
G1 X142.928 Y135.277 E9.07827
G1 X142.761 Y135.585 E9.08992
G1 X142.446 Y136.142 E9.11121
G1 X141.876 Y137.042 E9.14664
G1 X141.57 Y137.475 E9.16428
G1 X141.447 Y137.644 E9.17123
G1 X141.254 Y137.906 E9.18205
G1 X141.176 Y138.011 E9.1864
G1 X140.755 Y138.568 E9.20962
G1 X139.977 Y139.484 E9.2496
G1 X139.502 Y139.983 E9.27251
G1 X139.307 Y140.183 E9.2818
G1 X138.715 Y140.773 E9.3096
G1 X137.795 Y141.589 E9.3505
G1 X137.223 Y142.04 E9.37473
G1 X136.999 Y142.212 E9.38412
G1 X136.349 Y142.697 E9.41109
G1 X135.367 Y143.347 E9.45026
G1 X134.778 Y143.692 E9.47297
G1 X134.496 Y143.852 E9.48375
G1 X133.79 Y144.237 E9.5105
G1 X132.717 Y144.747 E9.55001
G1 X132.094 Y145.001 E9.57239
G1 X131.828 Y145.105 E9.58189
G1 X131.042 Y145.401 E9.60982
G1 X129.993 Y145.735 E9.64644
G1 X129.39 Y145.893 E9.66717
G1 X129.147 Y145.953 E9.6755
G1 X128.936 Y146.003 E9.68271
G1 X128.807 Y146.033 E9.68711
G1 X128.11 Y146.189 E9.71087
G1 X126.906 Y146.387 E9.75145
G1 X126.147 Y146.467 E9.77684
G1 X125.88 Y146.491 E9.78575
G1 X125.154 Y146.549 E9.80998
G1 X124.02 Y146.579 E9.84771
G1 X123.363 Y146.561 E9.86957
G1 X123.152 Y146.553 E9.87659
G1 X122.877 Y146.54 E9.88575
G1 X122.738 Y146.533 E9.89038
G1 X122.11 Y146.495 E9.9113
G1 X120.9 Y146.351 E9.95183
G1 X120.048 Y146.2 E9.98061
G1 X119.696 Y146.132 E9.99253
G1 X119.145 Y146.015 E10.01127
G1 X117.971 Y145.694 E10.05175
G1 X117.093 Y145.399 E10.08256
G1 X116.795 Y145.294 E10.09306
G1 X116.013 Y145.005 E10.12079
G1 X115.167 Y144.65 E10.15131
G1 X114.904 Y144.526 E10.16098
G1 X114.639 Y144.397 E10.17078
G1 X114.297 Y144.224 E10.18353
G1 X114.134 Y144.139 E10.18964
G1 X113.488 Y143.798 E10.21394
G1 X112.459 Y143.178 E10.2539
G1 X111.86 Y142.769 E10.27802
G1 X111.634 Y142.61 E10.28721
G1 X111.016 Y142.164 E10.31256
G1 X110.059 Y141.385 E10.3536
G1 X109.523 Y140.894 E10.37778
G1 X109.327 Y140.71 E10.38672
G1 X108.745 Y140.149 E10.41361
G1 X107.945 Y139.287 E10.45272
G1 X107.393 Y138.622 E10.48147
G1 X107.214 Y138.401 E10.49092
G1 X106.818 Y137.897 E10.51224
G1 X106.138 Y136.924 E10.55173
G1 X105.723 Y136.253 E10.57797
G1 X105.563 Y135.985 E10.58835
G1 X105.176 Y135.316 E10.61405
G1 X104.625 Y134.223 E10.65477
G1 X104.316 Y133.51 E10.68061
G1 X104.199 Y133.229 E10.69073
G1 X103.942 Y132.586 E10.71377
G1 X103.562 Y131.455 E10.75345
G1 X103.341 Y130.649 E10.78125
G1 X103.273 Y130.386 E10.79028
G1 X103.101 Y129.689 E10.81416
G1 X102.876 Y128.482 E10.855
G1 X102.749 Y127.48 E10.88859
G1 X102.719 Y127.213 E10.89753
G1 X102.651 Y126.54 E10.92002
G1 X102.598 Y125.363 E10.95921
G1 X102.604 Y124.789 E10.9783
G1 X102.611 Y124.495 E10.98808
G1 X102.634 Y123.893 E11.00812
G1 X102.75 Y122.68 E11.04865
G1 X102.895 Y121.741 E11.08025
G1 X102.953 Y121.402 E11.09169
G1 X103.101 Y120.614 E11.11836
G1 X103.298 Y119.761 E11.14748
G1 X103.378 Y119.47 E11.15751
G1 X103.482 Y119.117 E11.16975
G1 X103.643 Y118.602 E11.1877
G1 X103.691 Y118.453 E11.19291
G1 X103.89 Y117.848 E11.21409
G1 X104.338 Y116.71 E11.25477
G1 X104.678 Y115.975 E11.2817
G1 X104.809 Y115.703 E11.29174
G1 X105.22 Y114.877 E11.32243
G1 X105.289 Y114.741 E11.3275
G1 X106.322 Y112.738 E11.40246
G1 X107.414 Y110.467 E11.48627
G1 X108.455 Y108.135 E11.57121
G1 X109.43 Y105.777 E11.65608
G1 X110.307 Y103.465 E11.73832
G1 X111.143 Y101.06 E11.82301
G1 X111.907 Y98.648 E11.90716
G1 X112.6 Y96.221 E11.99111
G1 X113.231 Y93.749 E12.07596
G1 X113.786 Y91.299 E12.15952
G1 X114.27 Y88.822 E12.24346
G1 X114.701 Y86.251 E12.33016
G1 X114.893 Y85.351 E12.36077
G1 X115.162 Y84.471 E12.39138
G1 X115.506 Y83.617 E12.422
G1 X115.924 Y82.796 E12.45264
G1 X116.411 Y82.015 E12.48325
G0 F6000 X116.79 Y82.17
G1 F1200 X117.339 Y81.453 E12.51329
G1 X117.847 Y80.89 E12.53851
G1 X117.958 Y80.776 E12.5438
G1 X118.616 Y80.158 E12.57383
G1 X119.326 Y79.6 E12.60386
G1 X120.083 Y79.107 E12.63391
G1 X120.88 Y78.683 E12.66393
G1 X121.712 Y78.331 E12.69398
G1 X122.572 Y78.054 E12.72403
G1 X123.452 Y77.855 E12.75404
G1 X124.347 Y77.733 E12.78408
G1 X125.083 Y77.694 E12.8086
G1 X125.641 Y77.684 E12.82716
G1 X125.824 Y77.682 E12.83325
G1 X133.643 Y77.682 E13.09331
G1 X133.788 Y77.683 E13.09813
G1 X134.489 Y77.693 E13.12145
G1 X135.391 Y77.746 E13.1515
G1 X136.284 Y77.878 E13.18152
G1 X137.163 Y78.089 E13.21159
G1 X138.019 Y78.377 E13.24163
G1 X138.846 Y78.739 E13.27166
G1 X139.638 Y79.173 E13.30169
G1 X140.388 Y79.676 E13.33173
G1 X141.091 Y80.243 E13.36177
G1 X141.556 Y80.68 E13.38299
G1 X141.669 Y80.793 E13.38831
G1 X142.279 Y81.459 E13.41835
G1 X142.828 Y82.176 E13.44838
G1 X143.31 Y82.94 E13.47843
G1 X143.724 Y83.743 E13.50847
G1 X144.064 Y84.579 E13.53849
G1 X144.33 Y85.442 E13.56853
G1 X144.518 Y86.325 E13.59855
G1 X144.627 Y87.222 E13.62861
G1 X144.655 Y87.806 E13.64806
G1 X144.665 Y88.319 E13.66512
G1 X144.667 Y88.517 E13.67171
G1 X144.668 Y103.051 E14.15511
G1 X144.667 Y103.196 E14.15993
G1 X144.657 Y103.902 E14.18342
G1 X144.633 Y104.467 E14.20223
G1 X144.586 Y105.142 E14.22473
G1 X144.574 Y105.303 E14.2301
G1 X144.462 Y106.617 E14.27396
G1 X144.319 Y109.109 E14.35698
G1 X144.246 Y111.677 E14.44243
G1 X144.244 Y114.212 E14.52674
G1 X144.315 Y116.742 E14.61092
G1 X144.457 Y119.272 E14.69521
G1 X144.676 Y121.853 E14.78136
G1 X144.703 Y122.092 E14.78936
G1 X144.719 Y122.244 E14.79444
G1 X144.825 Y123.337 E14.83097
G1 X144.848 Y123.613 E14.84018
G1 X144.89 Y124.216 E14.86028
G1 X144.905 Y124.467 E14.86864
G1 X144.942 Y125.291 E14.89608
G1 X144.93 Y126.422 E14.9337
G1 X144.887 Y127.072 E14.95536
G1 X144.86 Y127.396 E14.96618
G1 X144.79 Y128.109 E14.99001
G1 X144.667 Y128.98 E15.01926
G1 X144.629 Y129.184 E15.02617
G1 X144.587 Y129.396 E15.03335
G1 X144.522 Y129.708 E15.04395
G1 X144.468 Y129.953 E15.0523
G1 X144.284 Y130.739 E15.07915
G1 X143.987 Y131.763 E15.11461
G1 X143.784 Y132.347 E15.13517
G1 X143.669 Y132.66 E15.14626
G1 X143.389 Y133.388 E15.17221
G1 X142.909 Y134.45 E15.21097
G1 X142.574 Y135.091 E15.23502
G1 X142.413 Y135.388 E15.24626
G1 X142.098 Y135.945 E15.26754
G1 X141.549 Y136.811 E15.30165
G1 X141.243 Y137.244 E15.31928
G1 X141.125 Y137.407 E15.32598
G1 X140.932 Y137.669 E15.3368
G1 X140.857 Y137.769 E15.34096
G1 X140.436 Y138.326 E15.36418
G1 X139.687 Y139.209 E15.40269
G1 X139.212 Y139.708 E15.4256
G1 X139.024 Y139.9 E15.43454
G1 X138.432 Y140.49 E15.46234
G1 X137.547 Y141.275 E15.50169
G1 X136.975 Y141.726 E15.52591
G1 X136.76 Y141.891 E15.53493
G1 X136.11 Y142.376 E15.5619
G1 X135.165 Y143.002 E15.5996
G1 X134.576 Y143.347 E15.62231
G1 X134.304 Y143.501 E15.6327
G1 X133.598 Y143.886 E15.65945
G1 X132.566 Y144.376 E15.69745
G1 X131.943 Y144.63 E15.71982
G1 X131.687 Y144.731 E15.72898
G1 X130.901 Y145.027 E15.75691
G1 X129.891 Y145.348 E15.79216
G1 X129.288 Y145.506 E15.81289
G1 X129.055 Y145.564 E15.82088
G1 X128.844 Y145.614 E15.82809
G1 X128.72 Y145.643 E15.83233
G1 X128.023 Y145.799 E15.85608
G1 X126.864 Y145.989 E15.89515
G1 X126.105 Y146.069 E15.92053
G1 X125.848 Y146.093 E15.92911
G1 X125.122 Y146.151 E15.95334
G1 X124.031 Y146.179 E15.98964
G1 X123.374 Y146.161 E16.0115
G1 X123.171 Y146.154 E16.01825
G1 X122.896 Y146.141 E16.02741
G1 X122.762 Y146.133 E16.03187
G1 X122.134 Y146.095 E16.0528
G1 X120.97 Y145.957 E16.09179
G1 X120.118 Y145.806 E16.12057
G1 X119.779 Y145.741 E16.13205
